icons/medical_sample_fill.svg

<svg width="48" height="48" viewBox="0 0 48 48" fill="none" xmlns="http://www.w3.org/2000/svg">
<path fill-rule="evenodd" clip-rule="evenodd" d="M18.1422 3.99994L4.00006 18.1421L11.7782 25.9202L25.9204 11.7781L18.1422 3.99994ZM16.8137 8.35042L15.3994 9.76463L20.3492 14.7144L21.7634 13.3002L16.8137 8.35042ZM13.2781 11.8861L11.8639 13.3003L16.8137 18.25L18.2279 16.8358L13.2781 11.8861ZM9.74213 15.4215L8.32791 16.8357L13.2777 21.7854L14.6919 20.3712L9.74213 15.4215Z" fill="black"/>
<path fill-rule="evenodd" clip-rule="evenodd" d="M11.864 23.1997L23.1777 11.886L40.8554 29.5637C43.9795 32.6879 43.9795 37.7532 40.8554 40.8774C37.7312 44.0016 32.6658 44.0016 29.5416 40.8774L11.864 23.1997ZM14.6924 23.1997L30.9559 39.4632C33.299 41.8063 37.098 41.8063 39.4411 39.4632C41.7843 37.12 41.7843 33.3211 39.4411 30.9779L23.1777 14.7145L14.6924 23.1997Z" fill="black"/>
<path fill-rule="evenodd" clip-rule="evenodd" d="M19.6424 23.9067L27.4206 16.1286L39.4414 28.1494L31.6633 35.9275L19.6424 23.9067ZM22.4709 23.9067L31.6633 33.0991L36.613 28.1494L27.4206 18.957L22.4709 23.9067Z" fill="black"/>
<path fill-rule="evenodd" clip-rule="evenodd" d="M27.0659 29.9173C27.0657 29.9174 27.0661 29.9173 27.0659 29.9173C25.6517 30.6245 23.8839 32.3922 23.5304 33.4528L30.2479 40.1705C32.9815 42.9041 37.4137 42.9041 40.1473 40.1704C42.881 37.4368 42.881 33.0046 40.1474 30.271L38.0265 28.1501L31.663 34.5135L27.0659 29.9173Z" fill="black"/>
<path fill-rule="evenodd" clip-rule="evenodd" d="M24.755 33.2634L30.9559 39.4632C33.299 41.8063 37.098 41.8063 39.4411 39.4632C41.7843 37.12 41.7843 33.3211 39.4411 30.9779L38.0265 29.5643L31.6633 35.9275L26.9078 31.1726C26.4763 31.4662 26.0202 31.8469 25.6075 32.2596C25.2368 32.6304 24.95 32.9781 24.755 33.2634ZM24.1933 30.8454C24.9053 30.1334 25.7865 29.439 26.6187 29.0229L26.7383 28.9631L27.3951 28.8314L31.6633 33.0991L38.0265 26.7359L40.8554 29.5637C43.9795 32.6879 43.9795 37.7532 40.8554 40.8774C37.7312 44.0016 32.6658 44.0016 29.5416 40.8774L22.4697 33.8065L22.5532 33.2221L22.5817 33.1366C22.8352 32.376 23.5063 31.5324 24.1933 30.8454Z" fill="black"/>
</svg>

<svg
  xmlns="http://www.w3.org/2000/svg"
  width="24"
  height="24"
  viewBox="0 0 24 24"
  fill="none"
  stroke="currentColor"
  stroke-width="2"
  stroke-linecap="round"
  stroke-linejoin="round"
>
  <path
    fill-rule="evenodd"
    d="M18.142 4 4 18.142l7.778 7.778L25.92 11.778zm-1.328 4.35-1.415 1.415 4.95 4.95 1.414-1.415zm-3.536 3.536L11.864 13.3l4.95 4.95 1.414-1.414zm-3.536 3.536-1.414 1.414 4.95 4.95 1.414-1.415z"
    clip-rule="evenodd"
  />
  <path
    fill-rule="evenodd"
    d="m11.864 23.2 11.314-11.314 17.677 17.678a8 8 0 0 1-11.313 11.313zm2.828 0 16.264 16.263a6 6 0 0 0 8.485-8.485L23.178 14.714z"
    clip-rule="evenodd"
  />
  <path
    fill-rule="evenodd"
    d="m19.642 23.907 7.779-7.778 12.02 12.02-7.778 7.779zm2.829 0 9.192 9.192 4.95-4.95-9.192-9.192z"
    clip-rule="evenodd"
  />
  <path
    fill-rule="evenodd"
    d="M27.066 29.917c-1.414.707-3.182 2.475-3.536 3.536l6.718 6.717a7 7 0 0 0 9.9-9.899l-2.122-2.12-6.363 6.363z"
    clip-rule="evenodd"
  />
  <path
    fill-rule="evenodd"
    d="m24.755 33.263 6.2 6.2a6 6 0 0 0 8.486-8.485l-1.415-1.414-6.363 6.364-4.755-4.755a9.3 9.3 0 0 0-1.3 1.087c-.371.37-.658.718-.853 1.003m-.562-2.418c.712-.712 1.593-1.406 2.426-1.822l.12-.06.656-.132 4.268 4.268 6.363-6.363 2.83 2.828a8 8 0 0 1-11.314 11.313l-7.072-7.07.083-.585.029-.085c.253-.761.924-1.605 1.611-2.292"
    clip-rule="evenodd"
  />
</svg>
